svg/Pictogram/pictograms-nps-information.svg

<svg xmlns="http://www.w3.org/2000/svg" width="123.55" height="123.54" viewBox="-0.258 -0.548 123.547 123.539" enable-background="new -0.258 -0.548 123.547 123.539"><path d="m110.1 123.28c8.156 0 14.766-6.617 14.766-14.773v-94.02c0-8.148-6.609-14.742-14.766-14.742h-94.02c-8.156 0-14.766 6.594-14.766 14.742v94.02c0 8.156 6.609 14.773 14.766 14.773h94.02"/><path d="m16.09 2.254c-6.766 0-12.266 5.492-12.266 12.242v94.02c0 6.773 5.5 12.281 12.266 12.281h94.02c6.766 0 12.258-5.508 12.258-12.281v-94.02c0-6.75-5.492-12.242-12.258-12.242h-94.02" fill="#fff"/><path d="m63.09 105.36c24.22 0 43.875-19.633 43.875-43.867 0-24.22-19.656-43.852-43.875-43.852-24.24 0-43.891 19.633-43.891 43.852 0 24.23 19.649 43.867 43.891 43.867m-51.41-43.867c0-28.391 23.02-51.39 51.41-51.39 28.398 0 51.42 23 51.42 51.39 0 28.383-23.02 51.41-51.42 51.41-28.391 0-51.41-23.02-51.41-51.41"/><path d="m57.38 77.22l10.477-.023v-8.125c0-2.227 1.039-4.32 3.773-6.133 2.758-1.781 10.445-5.469 10.445-15.09 0-9.641-8.07-16.258-14.859-17.672-6.781-1.398-14.15-.469-19.359 5.242-4.688 5.133-5.648 9.156-5.648 18.09h10.468v-2.078c0-4.734.555-9.766 7.344-11.156 3.719-.758 7.195.414 9.266 2.445 2.367 2.32 2.391 7.516-1.398 10.08l-5.892 4.01c-3.445 2.242-4.617 4.711-4.617 8.297v12.11"/><path d="m57.31 81.949h10.617v10.789h-10.617z"/></svg>

<?xml version="1.0" encoding="iso-8859-1"?>
<!-- Generator: Adobe Illustrator 13.0.2, SVG Export Plug-In . SVG Version: 6.00 Build 14948)  -->
<!DOCTYPE svg PUBLIC "-//W3C//DTD SVG 1.1//EN" "http://www.w3.org/Graphics/SVG/1.1/DTD/svg11.dtd">
<svg version="1.1" id="Layer_1" xmlns="http://www.w3.org/2000/svg" xmlns:xlink="http://www.w3.org/1999/xlink" x="0px" y="0px"
	 width="123.547px" height="123.539px" viewBox="-0.258 -0.548 123.547 123.539"
	 style="enable-background:new -0.258 -0.548 123.547 123.539;" xml:space="preserve">
<g>
	<path style="fill:#000000;" d="M110.102,123.285c8.156,0,14.766-6.617,14.766-14.773V14.496c0-8.148-6.609-14.742-14.766-14.742
		H16.086C7.93-0.246,1.32,6.348,1.32,14.496v94.016c0,8.156,6.609,14.773,14.766,14.773H110.102z"/>
	<path style="fill:#FFFFFF;" d="M16.086,2.254C9.32,2.254,3.82,7.746,3.82,14.496v94.016c0,6.773,5.5,12.281,12.266,12.281h94.016
		c6.766,0,12.258-5.508,12.258-12.281V14.496c0-6.75-5.492-12.242-12.258-12.242H16.086z"/>
	<path style="fill:#000000;" d="M63.094,105.363c24.219,0,43.875-19.633,43.875-43.867c0-24.219-19.656-43.852-43.875-43.852
		c-24.242,0-43.891,19.633-43.891,43.852C19.203,85.73,38.852,105.363,63.094,105.363z M11.68,61.496
		c0-28.391,23.023-51.391,51.414-51.391c28.398,0,51.422,23,51.422,51.391c0,28.383-23.023,51.406-51.422,51.406
		C34.703,112.902,11.68,89.879,11.68,61.496z"/>
	<path style="fill:#000000;" d="M57.383,77.215l10.477-0.023v-8.125c0-2.227,1.039-4.32,3.773-6.133
		c2.758-1.781,10.445-5.469,10.445-15.086c0-9.641-8.07-16.258-14.859-17.672c-6.781-1.398-14.148-0.469-19.359,5.242
		c-4.688,5.133-5.648,9.156-5.648,18.094H52.68v-2.078c0-4.734,0.555-9.766,7.344-11.156c3.719-0.758,7.195,0.414,9.266,2.445
		c2.367,2.32,2.391,7.516-1.398,10.078L62,56.809c-3.445,2.242-4.617,4.711-4.617,8.297V77.215z"/>
	<rect x="57.312" y="81.949" style="fill:#000000;" width="10.617" height="10.789"/>
</g>
</svg>
